X: 52
M:6/8
L:1/8
K:A
uE|\
aba aec | dfa ecA | Ace fdB | BAA A2:|
|:uc/d/|\
ecc fdd | ecA B2A | Ace fga | gee efg |
aba aec | dfa ecA | Ace fdB | BAA A2:|


